src/topics/icons/traackr.svg

<svg height="256" preserveAspectRatio="xMidYMid" viewBox="0 0 256 256" width="256" xmlns="http://www.w3.org/2000/svg"><path d="m128 256c70.692419 0 128-57.307733 128-128 0-70.6922667-57.307581-128-128-128s-128 57.3077333-128 128c0 70.692267 57.307581 128 128 128" fill="#f04c3c"/><g fill="#fff"><path d="m76.5892571 136.990019c-3.3726476 0-6.1549714-1.123809-8.3471238-3.372648-2.1921523-2.247466-3.2882285-5.114209-3.2882285-8.600076 0-3.315809 1.2080762-6.182552 3.6254476-8.600076 2.4161524-2.416152 5.2828952-3.625448 8.6000762-3.625448 3.6531809 0 6.5621333 1.321296 8.7265524 3.962819 2.1632 2.642743 3.2461714 6.183924 3.2461714 10.623543v38.953296h31.5335616v-41.229715c0-13.770971-3.920609-24.633143-11.761828-32.5875807-7.841219-7.953219-18.5636574-11.9305143-32.1659431-11.9305143-12.1979429 0-22.5542096 4.2447239-31.0700191 12.7314286-8.5156571 8.4880764-12.7736381 18.8312384-12.7736381 31.0278094 0 12.535162 4.2157714 22.962591 12.6471619 31.28061 8.4315429 8.319543 18.9708191 12.478628 31.617981 12.478628 2.135619 0 4.4963047-.225219 7.0825143-.67459v-32.629638c-2.3608381 1.462247-4.9193143 2.192152-7.6726858 2.192152"/><path d="m178.989257 136.863543c-3.3728 0-6.155124-1.12381-8.347124-3.372648-2.192152-2.247466-3.288228-5.114209-3.288228-8.600076 0-3.315809 1.208076-6.182552 3.625447-8.600076 2.416-2.416153 5.282896-3.625448 8.600077-3.625448 3.653333 0 6.562133 1.321295 8.726704 3.962819 2.163048 2.642743 3.246172 6.183924 3.246172 10.623543v38.953295h31.533409v-41.229714c0-13.770971-3.920609-24.633143-11.761981-32.5875809-7.841219-7.953219-18.563657-11.9305142-32.16579-11.9305142-12.197943 0-22.55421 4.2447238-31.070019 12.7314285-8.51581 8.4880766-12.773638 18.8312386-12.773638 31.0278096 0 12.535162 4.215771 22.96259 12.647162 31.280609 8.43139 8.319543 18.970666 12.478629 31.617828 12.478629 2.135772 0 4.496305-.225219 7.082514-.67459v-32.629639c-2.360685 1.462248-4.919161 2.192153-7.672533 2.192153"/></g></svg>

<?xml version="1.0" encoding="UTF-8" standalone="no"?>
<svg width="256px" height="256px" viewBox="0 0 256 256" version="1.1" xmlns="http://www.w3.org/2000/svg" xmlns:xlink="http://www.w3.org/1999/xlink" preserveAspectRatio="xMidYMid">
	<g>
		<path d="M128,256 C198.692419,256 256,198.692267 256,128 C256,57.3077333 198.692419,0 128,0 C57.307581,0 0,57.3077333 0,128 C0,198.692267 57.307581,256 128,256" fill="#F04C3C"></path>
		<path d="M76.5892571,136.990019 C73.2166095,136.990019 70.4342857,135.86621 68.2421333,133.617371 C66.049981,131.369905 64.9539048,128.503162 64.9539048,125.017295 C64.9539048,121.701486 66.161981,118.834743 68.5793524,116.417219 C70.9955048,114.001067 73.8622476,112.791771 77.1794286,112.791771 C80.8326095,112.791771 83.7415619,114.113067 85.905981,116.75459 C88.069181,119.397333 89.1521524,122.938514 89.1521524,127.378133 L89.1521524,166.331429 L120.685714,166.331429 L120.685714,125.101714 C120.685714,111.330743 116.765105,100.468571 108.923886,92.5141333 C101.082667,84.5609143 90.3602286,80.583619 76.7579429,80.583619 C64.56,80.583619 54.2037333,84.8283429 45.6879238,93.3150476 C37.1722667,101.803124 32.9142857,112.146286 32.9142857,124.342857 C32.9142857,136.878019 37.1300571,147.305448 45.5614476,155.623467 C53.9929905,163.94301 64.5322667,168.102095 77.1794286,168.102095 C79.3150476,168.102095 81.6757333,167.876876 84.2619429,167.427505 L84.2619429,134.797867 C81.9011048,136.260114 79.3426286,136.990019 76.5892571,136.990019" fill="#FFFFFF"></path>
		<path d="M178.989257,136.863543 C175.616457,136.863543 172.834133,135.739733 170.642133,133.490895 C168.449981,131.243429 167.353905,128.376686 167.353905,124.890819 C167.353905,121.57501 168.561981,118.708267 170.979352,116.290743 C173.395352,113.87459 176.262248,112.665295 179.579429,112.665295 C183.232762,112.665295 186.141562,113.98659 188.306133,116.628114 C190.469181,119.270857 191.552305,122.812038 191.552305,127.251657 L191.552305,166.204952 L223.085714,166.204952 L223.085714,124.975238 C223.085714,111.204267 219.165105,100.342095 211.323733,92.3876571 C203.482514,84.4344381 192.760076,80.4571429 179.157943,80.4571429 C166.96,80.4571429 156.603733,84.7018667 148.087924,93.1885714 C139.572114,101.676648 135.314286,112.01981 135.314286,124.216381 C135.314286,136.751543 139.530057,147.178971 147.961448,155.49699 C156.392838,163.816533 166.932114,167.975619 179.579276,167.975619 C181.715048,167.975619 184.075581,167.7504 186.66179,167.301029 L186.66179,134.67139 C184.301105,136.133638 181.742629,136.863543 178.989257,136.863543" fill="#FFFFFF"></path>
	</g>
</svg>
